contributed-vectors/red_moon.svg

<?xml version="1.0" encoding="UTF-8" standalone="no"?>
<svg
   xmlns:dc="http://purl.org/dc/elements/1.1/"
   xmlns:cc="http://creativecommons.org/ns#"
   xmlns:rdf="http://www.w3.org/1999/02/22-rdf-syntax-ns#"
   xmlns:svg="http://www.w3.org/2000/svg"
   xmlns="http://www.w3.org/2000/svg"
   xmlns:sodipodi="http://sodipodi.sourceforge.net/DTD/sodipodi-0.dtd"
   xmlns:inkscape="http://www.inkscape.org/namespaces/inkscape"
   inkscape:export-ydpi="96"
   inkscape:export-xdpi="96"
   inkscape:export-filename="red_moon.png"
   inkscape:version="1.0.1 (3bc2e813f5, 2020-09-07)"
   sodipodi:docname="red_moon.svg"
   xml:space="preserve"
   enable-background="new 0 0 192 192"
   viewBox="0 0 192 192"
   y="0px"
   x="0px"
   id="Слой_1"
   version="1.1"><path
     style="opacity:1;vector-effect:none;fill:#ba6561;fill-opacity:1;stroke-width:4;paint-order:stroke fill markers"
     d="M 96 8 A 88 88 0 0 0 8 96 A 88 88 0 0 0 16.773438 134.12891 A 88 88 0 0 0 16.775391 134.12891 L 88.371094 183.61914 A 88 88 0 0 0 96 184 A 88 88 0 0 0 184 96 A 88 88 0 0 0 96 8 z "
     id="path1821" /><path
     style="fill:#fefeff;fill-opacity:1;stroke-width:4"
     d="M 130.125 52.09375 C 127.83574 52.06175 110.91516 65.89268 93.625 76.25 C 88.794692 75.7378 84.706788 74.461729 80 77.599609 C 68 85.599609 58.25 89.125 58.25 89.125 C 58.25 89.125 38.449219 86.125 29.199219 92 C 23.57168 95.57424 40 108 40 108 L 16.773438 134.12891 A 88 88 0 0 0 88.373047 183.61914 C 89.414972 182.586 98.016396 173.95082 100 168 C 102.10818 161.67544 101.94226 146.34116 104 140 C 107.55497 129.045 108.73624 128.99032 112 124 C 117.69991 115.28476 132 100 132 100 C 132 100 135.17092 98.18516 137.19922 96 C 143.02562 89.723 145.35903 83.434221 142.40039 78.800781 C 141.34499 77.147941 138.91435 79.415329 130.96875 81.599609 C 133.85098 76.040529 134.20737 74.19326 135.15625 68.9375 C 135.97906 64.38006 133.63525 52.14215 130.125 52.09375 z "
     id="path1834" /><path
     id="path959"
     class="st1"
     d="m 71.809309,61.028929 v 70.013281 c 0,1.65685 1.155764,2.31571 2.581568,1.47176 8.581006,-5.07921 36.873693,-21.82127 59.266353,-35.017151 1.42743,-0.841178 1.42737,-2.204432 -3.1e-4,-3.045206 L 74.394349,59.551285 a 1.7148406,1.7148406 150.24713 0 0 -2.58504,1.477644 z"
     sodipodi:nodetypes="cccc"
     inkscape:original-d="m 71.809309,58.028929 v 76.013281 c 0,0 37.452251,-22.17568 64.432651,-38.068241 z"
     inkscape:path-effect="#path-effect972"
     style="fill:#000000;fill-opacity:0;stroke-width:1.23198" /><path
     id="path961"
     class="st0"
     d="m 83.759532,81.726223 v 28.495487 c 0,1.65685 1.156884,2.3176 2.584183,1.47618 4.769871,-2.81195 15.280555,-9.00491 24.148925,-14.206735 1.42914,-0.838274 1.43036,-2.198188 0.002,-3.038246 L 86.345335,80.247283 a 1.7158382,1.7158382 150.23277 0 0 -2.585803,1.47894 z"
     sodipodi:nodetypes="cccc"
     inkscape:path-effect="#path-effect974"
     inkscape:original-d="m 83.759532,78.726223 v 34.495487 c 0,0 17.124548,-10.10225 29.321168,-17.247741 z"
     style="fill:#000000;fill-opacity:0;stroke-width:1.23198" /><rect
     id="rect963"
     x="83.759537"
     y="102.87306"
     class="st0"
     width="7.6382871"
     height="25.871618"
     style="fill:#000000;fill-opacity:0;stroke-width:1.23198" /><metadata
     id="metadata13"><rdf:RDF><cc:Work
         rdf:about=""><dc:format>image/svg+xml</dc:format><dc:type
           rdf:resource="http://purl.org/dc/dcmitype/StillImage" /><dc:title /></cc:Work></rdf:RDF></metadata><defs
     id="defs11"><inkscape:path-effect
       effect="fillet_chamfer"
       id="path-effect967"
       is_visible="true"
       lpeversion="1"
       satellites_param="F,0,0,1,0,3,0,1 @ F,0,0,1,0,3,0,1 @ F,0,0,1,0,3,0,1"
       unit="px"
       method="auto"
       mode="F"
       radius="3"
       chamfer_steps="1"
       flexible="false"
       use_knot_distance="true"
       apply_no_radius="true"
       apply_with_radius="true"
       only_selected="false"
       hide_knots="false" /><inkscape:path-effect
       effect="fillet_chamfer"
       id="path-effect970"
       is_visible="true"
       lpeversion="1"
       satellites_param="F,0,0,1,0,3,0,1 @ F,0,0,1,0,3,0,1 @ F,0,0,1,0,3,0,1"
       unit="px"
       method="auto"
       mode="F"
       radius="3"
       chamfer_steps="1"
       flexible="false"
       use_knot_distance="true"
       apply_no_radius="true"
       apply_with_radius="true"
       only_selected="false"
       hide_knots="false" /><inkscape:path-effect
       effect="fillet_chamfer"
       id="path-effect972"
       is_visible="true"
       lpeversion="1"
       satellites_param="F,0,0,1,0,3,0,1 @ F,0,0,1,0,3,0,1 @ F,0,0,1,0,3,0,1"
       unit="px"
       method="auto"
       mode="F"
       radius="3"
       chamfer_steps="1"
       flexible="false"
       use_knot_distance="true"
       apply_no_radius="true"
       apply_with_radius="true"
       only_selected="false"
       hide_knots="false" /><inkscape:path-effect
       effect="fillet_chamfer"
       id="path-effect974"
       is_visible="true"
       lpeversion="1"
       satellites_param="F,0,0,1,0,3,0,1 @ F,0,0,1,0,3,0,1 @ F,0,0,1,0,3,0,1"
       unit="px"
       method="auto"
       mode="F"
       radius="3"
       chamfer_steps="1"
       flexible="false"
       use_knot_distance="true"
       apply_no_radius="true"
       apply_with_radius="true"
       only_selected="false"
       hide_knots="false" /></defs><sodipodi:namedview
     inkscape:document-rotation="0"
     inkscape:object-paths="true"
     inkscape:snap-object-midpoints="true"
     inkscape:snap-center="false"
     inkscape:object-nodes="true"
     inkscape:snap-intersection-paths="true"
     inkscape:current-layer="Слой_1"
     inkscape:window-maximized="1"
     inkscape:window-y="0"
     inkscape:window-x="36"
     inkscape:cy="82.100997"
     inkscape:cx="11.059722"
     inkscape:zoom="0.8691521"
     showgrid="false"
     id="namedview9"
     inkscape:window-height="1052"
     inkscape:window-width="1884"
     inkscape:pageshadow="2"
     inkscape:pageopacity="0"
     guidetolerance="10"
     gridtolerance="10"
     objecttolerance="10"
     borderopacity="1"
     bordercolor="#666666"
     pagecolor="#ffffff"
     showguides="true"
     inkscape:guide-bbox="true"><inkscape:grid
       type="xygrid"
       id="grid825" /></sodipodi:namedview><style
     type="text/css"
     id="style824">
	.st0{fill:#CD201F;}
	.st1{fill:#FFFFFF;}
</style><g
     transform="translate(-222.58199,84.185032)"
     id="Vonalak" /></svg>

<svg xmlns="http://www.w3.org/2000/svg" xml:space="preserve" id="Слой_1" x="0" y="0" version="1.1" viewBox="0 0 192 192"><path id="path1821" d="M96 8A88 88 0 0 0 8 96a88 88 0 0 0 8.773 38.129 88 88 0 0 0 .002 0l71.596 49.49A88 88 0 0 0 96 184a88 88 0 0 0 88-88A88 88 0 0 0 96 8z" style="opacity:1;vector-effect:none;fill:#ba6561;fill-opacity:1;stroke-width:4;paint-order:stroke fill markers"/><path id="path1834" d="M130.125 52.094c-2.29-.032-19.21 13.799-36.5 24.156-4.83-.512-8.918-1.788-13.625 1.35-12 8-21.75 11.525-21.75 11.525s-19.8-3-29.05 2.875C23.571 95.574 40 108 40 108l-23.227 26.129a88 88 0 0 0 71.6 49.49c1.042-1.033 9.643-9.668 11.627-15.619 2.108-6.325 1.942-21.659 4-28 3.555-10.955 4.736-11.01 8-16 5.7-8.715 20-24 20-24s3.17-1.815 5.2-4c5.826-6.277 8.159-12.566 5.2-17.2-1.055-1.652-3.486.615-11.431 2.8 2.882-5.56 3.238-7.407 4.187-12.662.823-4.558-1.52-16.796-5.031-16.844z" style="fill:#fefeff;fill-opacity:1;stroke-width:4"/><path id="path959" d="M71.81 61.029v70.013c0 1.657 1.155 2.316 2.58 1.472 8.582-5.08 36.875-21.821 59.267-35.017 1.428-.841 1.428-2.205 0-3.045l-59.263-34.9a1.715 1.715 150.247 0 0-2.585 1.477z" style="fill:#000;fill-opacity:0;stroke-width:1.23198"/><path id="path961" d="M83.76 81.726v28.496c0 1.657 1.156 2.317 2.584 1.476 4.77-2.812 15.28-9.005 24.149-14.207 1.429-.838 1.43-2.198.002-3.038l-24.15-14.206a1.716 1.716 150.233 0 0-2.585 1.48z" class="st0" style="fill:#000;fill-opacity:0;stroke-width:1.23198"/><path id="rect963" d="M83.76 102.873h7.638v25.872H83.76z" class="st0" style="fill:#000;fill-opacity:0;stroke-width:1.23198"/><style id="style824" type="text/css">.st0{fill:#cd201f}</style></svg>
